X: 34301
T: Restless Boy, The
R: jig
M: 6/8
K: Gmajor
(A|B)GG Ad(d|B)GG ADD|BGG ADD|GBG FED|
BGG AFF|BAG ABc|dge ~f2d|cAF G2:|
D|:GBd g2(e|f)ed cAF|GBd g2g|(f/g/a) fg2 g|
(f/g/a) fg2 e|fed cAG|~B3 BAG|(B/c/d) (B c)BA:|
GBB B2 (d|c)AA AFD|GBB BAG|(B/c/d) B cBA|
GBB B2 d|cAA ABc|dge ~f2d|cAF G3:|

